X: 137
T:March By T.Barry. JaW.137
T:Barry's March. JaW.137
M:C|
Q:180
C:"James Winder 1841"
S:James Winder Ms, Lancashire, 1835-41
R:March
O:England
A:Wyresdale,Lancashire
N:Something odd about the key in Part B
H:1/8
Z:vmp.Chris Partington, Aug 2004
K:F
c2c>cc2G2|cGcec2G2|e2e>ee2c2|ecege2c2|a2f4fg/a/|!
g2e4ef/g/|f2d4de/f/|e2c4de|feag ^fedc|B2B>BB2z2||!
g2g>gg2d2|gdgbg2d2|c2c>cc2g2|agc'e'c'2g2|!
eceg ^fdfa|g4a4|g4afdB|f2a4f>d|e2g4e>c|!
d2f4d>B|cBAG FEDC|f2a4f>d|e2g4e>c|d2f4d2|e2e>ee2|]
